X:1
T:La risata
T:Giovanni Battista Martini (1706-1784)
%%score [ 1 2 3 ]
L:1/8
Q:1/4=96
M:2/4
K:A
V:1 treble nm="1"
V:2 treble nm="2"
V:3 treble nm="3"
V:1
"^Andante" z4 | z4 | z4 | z4 | z4 | z4 | z4 | z4 | z4 | z4 | z4 | z4 | z4 | z4 | z4 | z4 | z4 | %17
w: |||||||||||||||||
 z4 | z4 | z4 ||S c c/ c/ e c | B z z c | d c d B | c .e .A c | B G A B | G z z .E | .d .d .c .c | %27
w: |||Va- da- si via di|qua che|que- sto~in ve- ri-|tà ah ah da|ri- de- re mi|fa ah|ah ah ah ah|
 .B .B .A A | B B G G | A .e .c A | B B B B | c .e .c A | d d e e |1 A2- A z ||2 A4- | %35
w: ah ah ah da|ri- de- re mi|fa ah ah da|ri- de- re mi|fa ah ah da|ri- de- re mi|fa. _|fa.|
 A z z2!fine! |] c c/ c/ A c | B z z c | d c d B | c z z c | B G A B | G z z .G | .f .f .e .e | %43
w: _|Va- da- si via di|qua che|que- sto~in ve- ri-|tà da|ri- de- re mi|fa ah|ah ah ah ah|
 .d .d .c c | B B G G | A z z2!D.S.! |] %46
w: ah ah ah da|ri- de- re mi|fa.|
V:2
 z4 | z4 | z4 | z4 | z4 | z4 | z4 | z4 | z4 | z4 | A A/ B/ c A | E z z E | F E F G | A z z A | %14
w: ||||||||||Va- da- si via di|qua che|que- sto~in ve- ri-|tà, da|
 G E F ^D | E z z .E | .=d .d .c .c | .B .B .A A | F F G G | A z z2 || A A/ A/ A A | G .B .E A | %22
w: ri- de- re mi|fa ah|ah ah ah ah|ah ah ah da|ri- de- re mi|fa.|Va- da- si via di|qua ah ah che|
 B A B G | A z z A | G E F ^D | E z z .E | .A .A .G .G | .F .F .E E | F F E E | A .c .A A | %30
w: que- sto~in ve- ri-|tà da|ri- de- re mi|fa ah|ah ah ah ah|ah ah ah da|ri- de- re mi|fa ah ah da|
 A A G G | A .c .A A | d d e e |1 A2- A z ||2 A4- | A z z2 |] A A/ A/ c A | E z z E | F E F G | %39
w: ri- de- re mi|fa ah ah da|ri- de- re mi|fa. _|fa.|_|Va- da- si via di|qua che|que- sto~in ve- ri-|
 A z z A | G E F ^D | E z z .E | .=d .d .c .c | .B .B .A A | D D E E | C z z2 |] %46
w: tà da|ri- de- re mi|fa ah|ah ah ah ah|ah ah ah da|ri- de- re mi|fa.|
V:3
 A, A,/ A,/ C A, | E z z E | F E F G | A z z A | G E F ^D | E z z .E | .=d .d .c .c | .B .B .A A | %8
w: Va- da- si via di|qua che|que- sto~in ve- ri-|tà, da|ri- de- re mi|fa ah|ah ah ah ah|ah ah ah da|
 D D E E | A, z z2 | A, A,/ A,/ A, C | E z z C | D C D B, | C z z C | B, B, B, B, | E z z .E | %16
w: ri- de- re mi|fa.|Va- da- si via di|qua che|que- sto~in ve- ri-|tà, da|ri- de- re mi|fa ah|
 .E .E .E .E | .D .D .C C | D D E E | A, z z2 || A, A,/ A,/ C A, | E z z E | E E E E | A, z z A, | %24
w: ah ah ah ah|ah ah ah da|ri- de- re mi|fa.|Va- da- si via di|qua che|que- sto~in ve- ri-|tà da|
 B, B, B, B, | E .B .E .E | .F .F .E .E | .D .D .C C | D D E E | A, .A .E C | D D E E | %31
w: ri- de- re mi|fa ah ah ah|ah ah ah ah|ah ah ah da|ri- de- re mi|fa ah ah da|ri- de- re mi|
 A, .A .E C | D D E E |1 A,2- A, z ||2 A,4- | A, z z2 |] z4 | z .B .E z | z4 | z .A .A, z | z4 | %41
w: fa ah ah da|ri- de- re mi|fa. _|fa.|_||ah ah||ah ah||
 z .B .E z | z4 | z4 | z4 | z .A .A, z |] %46
w: ah ah||||ah ah|

